src/svg/monochrome/16/verification-in-progress.svg

<svg width="16" height="16" viewBox="0 0 16 16" fill="none" xmlns="http://www.w3.org/2000/svg">
<g id="verification-in-progress" clip-path="url(#clip0_4884_12918)">
<path id="Union" d="M8.3623 0.975586C12.0783 1.16414 15.0331 4.23716 15.0332 8C15.0331 11.8843 11.8844 15.0332 8 15.0332L7.82422 15.0312C7.41625 15.0212 7.01642 14.9763 6.62793 14.8994C6.35712 14.8458 6.18079 14.5824 6.23438 14.3115C6.28814 14.0409 6.5515 13.8644 6.82227 13.918C7.10762 13.9744 7.40045 14.0107 7.69922 14.0254L8 14.0332C11.3321 14.0332 14.0331 11.3321 14.0332 8C14.0331 4.7721 11.4983 2.13624 8.31055 1.97461L8 1.9668L7.69922 1.97363C7.40046 1.98826 7.10761 2.02462 6.82227 2.08105L6.77148 2.08887C6.51916 2.1127 6.28462 1.94148 6.23438 1.6875C6.18114 1.41683 6.35727 1.15418 6.62793 1.10059L6.79492 1.06934C7.18665 1.00169 7.58963 0.966804 8 0.966797L8.3623 0.975586ZM2.28906 11.2148C2.51839 11.0613 2.82871 11.1224 2.98242 11.3516C3.36793 11.9274 3.84994 12.4341 4.40527 12.8467L4.64844 13.0176L4.68945 13.0479C4.88454 13.2094 4.92907 13.4959 4.78516 13.7109C4.64113 13.9259 4.35943 13.9939 4.13574 13.875L4.0918 13.8486L3.94922 13.75C3.24313 13.2517 2.63257 12.627 2.15137 11.9082C1.99785 11.6788 2.05971 11.3685 2.28906 11.2148ZM10.124 5.6709C10.3058 5.4634 10.6213 5.44166 10.8291 5.62305C11.0368 5.80476 11.0584 6.12126 10.877 6.3291L7.37793 10.3291C7.283 10.4376 7.14515 10.5 7.00098 10.5C6.85688 10.5 6.71993 10.4375 6.625 10.3291L5.12402 8.61328L5.0918 8.57324C4.94515 8.36662 4.97608 8.07765 5.1709 7.90723C5.36571 7.73715 5.65566 7.74527 5.84082 7.91797L5.87695 7.95508L7.00098 9.24023L10.124 5.6709ZM1.6875 6.23438C1.95839 6.28797 2.13465 6.55137 2.08105 6.82227L2.03125 7.10938C1.98836 7.39961 1.9668 7.69733 1.9668 8C1.9668 8.30244 1.98842 8.59962 2.03125 8.88965L2.08105 9.17773L2.08887 9.22852C2.11258 9.48075 1.9414 9.7154 1.6875 9.76562C1.43381 9.81552 1.18735 9.66395 1.11328 9.42188L1.10059 9.37207L1.06934 9.20508C1.00166 8.81328 0.966804 8.41045 0.966797 8C0.966805 7.531 1.01274 7.07203 1.10059 6.62793L1.11328 6.57812C1.18735 6.33606 1.43381 6.18448 1.6875 6.23438ZM4.0918 2.15137C4.32121 1.99797 4.63157 2.05975 4.78516 2.28906C4.9387 2.51843 4.87767 2.82874 4.64844 2.98242C3.99028 3.42305 3.42305 3.99028 2.98242 4.64844C2.82873 4.87766 2.51843 4.9387 2.28906 4.78516C2.05975 4.63157 1.99798 4.32121 2.15137 4.0918C2.66466 3.32513 3.32513 2.66466 4.0918 2.15137Z" fill="#3D3C3C"/>
</g>
<defs>
<clipPath id="clip0_4884_12918">
<rect width="16" height="16" fill="white"/>
</clipPath>
</defs>
</svg>

<svg xmlns="http://www.w3.org/2000/svg" width="16" height="16" fill="currentColor" viewBox="0 0 16 16">
  <g clip-path="url(#a)">
    <path d="M8.362.976A7.034 7.034 0 0 1 8 15.033l-.176-.002a7.048 7.048 0 0 1-1.196-.132.5.5 0 0 1 .194-.981c.286.056.578.093.877.107l.301.008a6.033 6.033 0 0 0 .31-12.058L8 1.967l-.3.007a6.042 6.042 0 0 0-.878.107l-.05.008a.5.5 0 0 1-.144-.988l.167-.032A7.08 7.08 0 0 1 8 .967l.362.009ZM2.29 11.215a.5.5 0 0 1 .693.137 6.073 6.073 0 0 0 1.423 1.495l.243.17.041.03a.5.5 0 0 1-.553.828l-.044-.026-.143-.099a7.07 7.07 0 0 1-1.798-1.842.5.5 0 0 1 .138-.693Zm7.835-5.544a.5.5 0 0 1 .753.658l-3.5 4a.502.502 0 0 1-.752 0L5.124 8.613l-.032-.04a.501.501 0 0 1 .749-.655l.036.037L7 9.24l3.123-3.57Zm-8.437.563a.5.5 0 0 1 .394.588l-.05.287a6.093 6.093 0 0 0 0 1.78l.05.289.008.05a.5.5 0 0 1-.976.194l-.012-.05-.032-.167a7.078 7.078 0 0 1 .032-2.577l.012-.05a.5.5 0 0 1 .575-.344Zm2.405-4.083a.5.5 0 0 1 .556.831 6.073 6.073 0 0 0-1.666 1.666.5.5 0 0 1-.83-.556 7.072 7.072 0 0 1 1.94-1.94Z"/>
  </g>
  <defs>
    <clipPath id="a">
      <path d="M0 0h16v16H0z"/>
    </clipPath>
  </defs>
</svg>
